X:1
T:Title
%%score { ( 1 3 ) | 2 }
L:1/8
Q:1/4=100
M:4/4
K:G
V:1 treble nm="Grand Piano"
V:3 treble 
V:2 bass 
V:1
 [B,B]2 [CG]>[CA] [DB]2 [B,D]>[B,^D] | [CE]2 [EG]>[^DA] [=DB]4 | d2 ^c>d B2 AG | %3
w: Ira~D.~Sankey * * * * *|||
 G2 [^CF]>[CG] [DA]2 [=C_B]2 | [B,B]2 [CG]>[CA] [DB]2 [B,D]>[B,^D] | [CE]2 [EG]>[^DA] B4 | %6
w: |||
 c2 B[DFA] [DGd][DGB][B,G][EGA] | [DGB]2 [B,EG]>[CFA] [B,G]4 | %8
w: ||
 [DFA]2 [A,DF]>[A,EG] [DFA] [Fd]2 [Fd] | [E^c]2 [DB]>[Ec] [Fd]4 | [FA]2 [DF]>[EG] [FA] [Fd]2 [Fd] | %11
w: |||
 [E^c]2 [Fd]>[Ge] [Fd]2 [A=c]2 | B2 G>A B2 [B,D]>[B,^D] | z4 [=DB]4 | %14
w: |||
 c2 B[DFA] [DGd][DGB][B,G][EGA] | [DGB]2 [B,EG]>[CFA] [B,G]4 |] %16
w: ||
V:2
 [G,,D,]2 [G,,E,]>[G,,^D,] [G,,=D,]2 [G,,G,]>[G,,G,] | [C,G,]2 [C,G,]>[C,G,] [G,,G,]4 | %2
 [G,B,G]2 [G,_B,G]>[G,=B,G] [G,DG]2 [G,B,D][K:bass][G,B,D] | [E,B,D]2 [A,,A,]>[A,,G,] [D,F,]4 | %4
 [G,,G,]2 [G,,E,]>[G,,^D,] [G,,=D,]2 [G,,G,]>[G,,G,] | [C,G,]2 [C,G,]>[C,G,] [G,D]4 | %6
 [E,G,C]2 [D,G,D]C, B,,G,,E,C, | D,2 D,>D, G,4 | D,2 D,>D, D, [D,A,]2 [D,A,] | %9
 [A,,A,]2 [A,,A,]>[A,,A,] [D,A,]4 | [D,D]2 [D,A,]>[D,A,] [D,D] [D,A,]2 [D,A,] | %11
 [A,,A,]2 [A,,A,]>[A,,A,] [D,A,]2 [F,D]2 | %12
 [G,DG]2 [G,CE]>[K:bass][G,C^D] [G,B,=D]2 [G,,G,]>[G,,G,] | C,2 C,>C, G,4 | %14
 [E,G,C]2 [D,G,D]C, B,,G,,E,C, | D,2 D,>D, G,,4 |] %16
V:3
 x8 | x8 | x8 | x8 | x8 | x8 | x8 | x8 | x8 | x8 | x8 | x8 | x8 | [G,CE]2 [G,EG]>[^DA] z2 =F,2 | %14
 x8 | x8 |] %16

